X: 1
T:Oran do Mhac-Griogair o Ruadh-Shruth
Z:Jack Campin: "Embro, Embro", transcription (c) 2001
F:13law/abc/Tolmie.abc
S:Frances Tolmie: 105 Songs of Occupation from the Western Isles of Scotland
N:sung by Janet Anderson, Bracadale, Skye, 1861
N:Tolmie contributed the second tune for this in the Gesto Collection; the first
N:is a different one, similar to that in the Minstrelsy of the Scottish Highlands
M:3/4
L:1/8
Q:1/4=90
K:CMix
(CD)|F2 (GA) (GF)|(DC) (CA,) (CD) |F2 F2  (GA)|({A}G2)  C2 C2|
     A2  c2  (dc)|(AG)  F2   (A>C)|D2 C2   A2 |   (A<G) F2  ||
(CD)|F2 (GA) (GF)|(DC) (CA,) (CD) |F2 F2  (GA)|({A}G2)  C2 CC|
     A2  c2   A>G| F2   D2    C>D |C2 A,2 (DE)|({E}D2)  C2  |]





